docs/img/contact/github.svg

<?xml version="1.0" encoding="UTF-8"?>
<svg width="44px" height="44px" viewBox="0 0 44 44" version="1.1" xmlns="http://www.w3.org/2000/svg" xmlns:xlink="http://www.w3.org/1999/xlink">
    <!-- Generator: Sketch 60 (88103) - https://sketch.com -->
    <title>github</title>
    <desc>Created with Sketch.</desc>
    <g id="RomDim" stroke="none" stroke-width="1" fill="none" fill-rule="evenodd">
        <g id="PROJECT-PAGE-2560" transform="translate(-285.000000, -4350.000000)">
            <rect fill="#FFFFFF" x="0" y="0" width="2560" height="4446"></rect>
            <rect id="Rectangle" fill="#FFFFFF" x="250" y="0" width="2000" height="4446"></rect>
            <g id="Footer" transform="translate(250.000000, 4186.000000)">
                <rect id="Rectangle" x="0" y="0" width="2000" height="260"></rect>
                <g id="Contact" transform="translate(35.000000, 164.000000)" fill="#000000">
                    <g id="github">
                        <g id="Path">
                            <path d="M22,0 C9.84476596,0 0,9.99360691 0,22.3326134 C0,32.8279914 7.09429787,41.5386609 16.6657021,43.9942981 C16.555234,43.7149028 16.5009362,43.3233693 16.5009362,42.9337365 L16.5009362,39.1362419 L13.7504681,39.1362419 C12.2657021,39.1362419 10.8895319,38.4672138 10.284766,37.2374946 C9.56953191,35.8975378 9.45906383,33.8315335 7.64476596,32.5466955 C7.09429787,32.1000432 7.53429787,31.6533909 8.13906383,31.7085097 C9.29429787,32.0430238 10.2285957,32.8260907 11.1085957,33.9968898 C11.9885957,35.1695896 12.3742979,35.4489849 14.0238298,35.4489849 C14.7933617,35.4489849 16.0028936,35.3938661 17.1038298,35.2247084 C17.7085957,33.6604752 18.7533617,32.2653996 20.0190638,31.5963715 C12.6495319,30.703067 9.12953191,27.0177106 9.12953191,21.9923974 C9.12953191,19.8142549 10.0638298,17.7482505 11.604766,15.9616415 C11.1104681,14.2301512 10.4495319,10.656933 11.8257021,9.26185745 C15.1266383,9.26185745 17.1057021,11.44 17.6,11.9968898 C19.2495319,11.4380994 21.0657021,11.1035853 22.9342979,11.1035853 C24.8590638,11.1035853 26.6190638,11.4380994 28.2685957,11.9968898 C28.7628936,11.4380994 30.7438298,9.26185745 34.0428936,9.26185745 C35.3628936,10.6018143 34.7581277,14.2301512 34.2076596,15.9616415 C35.7485957,17.6931317 36.6285957,19.8142549 36.6285957,21.9923974 C36.6285957,27.0177106 33.1628936,30.703067 25.8495319,31.4842333 C27.884766,32.5447948 29.315234,35.5592225 29.315234,37.7924838 L29.315234,42.8786177 C29.315234,43.0458747 29.2609362,43.2131317 29.2609362,43.3803888 C37.84,40.3659611 44,32.1038445 44,22.3326134 C44,9.99360691 34.155234,0 22,0 L22,0 Z"></path>
                        </g>
                    </g>
                </g>
            </g>
        </g>
    </g>
</svg>

<svg width="44" height="44" xmlns="http://www.w3.org/2000/svg"><g fill="none" fill-rule="evenodd"><path fill="#FFF" d="M-285-4350h2560V96H-285z"/><path fill="#FFF" d="M-35-4350h2000V96H-35z"/><path d="M-35-164h2000V96H-35z"/><path d="M22 0C9.845 0 0 9.994 0 22.333c0 10.495 7.094 19.206 16.666 21.661-.11-.28-.165-.67-.165-1.06v-3.798h-2.75c-1.485 0-2.861-.669-3.466-1.899-.715-1.34-.826-3.405-2.64-4.69-.55-.447-.11-.894.494-.838 1.155.334 2.09 1.117 2.97 2.288.88 1.173 1.265 1.452 2.915 1.452.77 0 1.979-.055 3.08-.224.605-1.565 1.65-2.96 2.915-3.629-7.37-.893-10.89-4.578-10.89-9.604 0-2.178.935-4.244 2.476-6.03-.495-1.732-1.155-5.305.22-6.7 3.302 0 5.28 2.178 5.775 2.735a16.708 16.708 0 015.334-.893c1.925 0 3.685.334 5.335.893.494-.559 2.475-2.735 5.774-2.735 1.32 1.34.715 4.968.165 6.7 1.54 1.731 2.42 3.852 2.42 6.03 0 5.026-3.465 8.711-10.778 9.492 2.035 1.06 3.465 4.075 3.465 6.308v5.087c0 .167-.054.334-.054.501C37.84 40.366 44 32.104 44 22.333 44 9.993 34.155 0 22 0z" fill="#000"/></g></svg>
